X: 10352
M: 3/4
L: 1/8
K: C
|:\
"^>"e4d2 | c2B2A2 | G2c2E2 | (A4G2) |\
"^>"e4d2 | c2B2A2 | G2c2E2 | (A4G2) |\
|:\
e3dB2 | d3cA2 | A6 | G4z2 |\
g6- | g2f2B2 | d6 | c4"^D.C."z2 :|


